svg/team-link-hover.svg

<svg width="74" height="10" viewBox="0 0 74 10" fill="none" xmlns="http://www.w3.org/2000/svg">
<path d="M1 8.11766C1.07614 8.10894 1.55499 7.79991 1.64706 7.73427C1.89564 7.55707 2.20591 7.45297 2.43791 7.279C3.1462 6.74785 3.94984 6.31945 4.64706 5.75142C5.43607 5.10861 6.47946 4.48079 7.40523 4.02017C8.12473 3.66218 8.5837 3.26537 9.41176 3.26537C10.3087 3.26537 11.6254 4.20115 12.2941 4.65516C13.5162 5.48485 14.8987 6.10513 16.1699 6.87164C17.7846 7.84528 19.8511 8.14223 21.5882 8.89643C21.9244 9.04237 22.0456 9.05091 22.3529 8.81256C23.2937 8.08299 23.9594 7.16835 24.9935 6.51221C27.5765 4.87318 30.4637 3.67432 33 1.99539C33.2501 1.82983 33.5214 1.71853 33.7647 1.54011C34.022 1.35144 35.6076 2.59213 35.8758 2.75019C37.4759 3.69296 39.1427 4.48553 40.7712 5.37402C41.9111 5.99588 43.2114 6.62687 44.4444 7.0873C45.4157 7.44996 46.4105 7.79362 47.3529 8.22549C47.7822 8.42219 47.8254 8.77492 48.1961 8.43516C48.8398 7.84514 49.8411 7.4734 50.6209 7.07532C51.6419 6.55411 52.7116 6.09713 53.6993 5.52378C54.681 4.95396 55.5478 4.2543 56.5556 3.72065C57.1292 3.41688 57.742 3.22077 58.3007 2.88797C59.1308 2.39342 59.883 1.81894 60.7386 1.34842C61.1224 1.13734 61.2878 0.986427 61.732 1.00097C62.1825 1.01571 62.5698 1.26142 62.9346 1.48021C64.023 2.13279 65.1413 2.73548 66.2353 3.37919C67.8295 4.31721 69.5856 5.20384 70.9346 6.44033C71.563 7.01624 72.6065 7.61192 73 8.33332" stroke="#B7B5B5" stroke-width="2" stroke-linecap="round"/>
</svg>

<svg xmlns="http://www.w3.org/2000/svg" width="74" height="10" fill="none"><path stroke="#B7B5B5" stroke-linecap="round" stroke-width="2" d="M1 8.118c.076-.01.555-.318.647-.384.249-.177.559-.281.79-.455.71-.531 1.513-.96 2.21-1.528.79-.642 1.832-1.27 2.758-1.73.72-.359 1.179-.756 2.007-.756.897 0 2.213.936 2.882 1.39 1.222.83 2.605 1.45 3.876 2.217 1.615.973 3.681 1.27 5.418 2.024.336.146.458.155.765-.083.94-.73 1.606-1.645 2.64-2.3 2.584-1.64 5.47-2.839 8.007-4.518.25-.165.521-.276.765-.455.257-.189 1.843 1.052 2.11 1.21 1.6.943 3.268 1.736 4.896 2.624 1.14.622 2.44 1.253 3.673 1.713.972.363 1.966.707 2.909 1.138.43.197.472.55.843.21.644-.59 1.645-.962 2.425-1.36 1.02-.52 2.09-.978 3.078-1.551.982-.57 1.849-1.27 2.857-1.803.573-.304 1.186-.5 1.745-.833.83-.495 1.582-1.07 2.438-1.54.383-.21.549-.362.993-.347.45.015.838.26 1.203.48 1.088.652 2.206 1.254 3.3 1.898 1.594.938 3.35 1.825 4.7 3.061.628.576 1.671 1.172 2.065 1.893"/></svg>
